web/ui/src/assets/svgs/logo/secondary-r.svg

<svg height="30" viewBox="0 0 118 30" width="118" xmlns="http://www.w3.org/2000/svg" xmlns:xlink="http://www.w3.org/1999/xlink"><mask id="a" fill="#fff"><path d="m0 .4561069h10.3588711v29.3484347h-10.3588711z" fill="#fff" fill-rule="evenodd"/></mask><mask id="b" fill="#fff"><path d="m.20731572.45386773h7.79226379v7.61606093h-7.79226379z" fill="#fff" fill-rule="evenodd"/></mask><g fill="none" fill-rule="evenodd" transform="translate(.236661)"><g fill="#042749"><path d="m5.09967545 3.13295239c0-1.48372125 1.21089908-2.67684549 2.64547621-2.67684549 1.46633388 0 2.61371944 1.19312424 2.61371944 2.67684549 0 1.45112222-1.14738556 2.64471216-2.61371944 2.64471216-1.43457713 0-2.64547621-1.19358994-2.64547621-2.64471216m5.25919565 6.57941423v12.09423748c0 4.3864314-3.44215667 7.9662699-7.77718456 7.9979375-1.43411689-.0316676-2.58196269-1.1931243-2.58196269-2.6442465 0-1.4837212 1.17960256-2.6768455 2.64547621-2.6768455h-.12702704c1.43411688 0 2.58150243-1.1609909 2.58150243-2.6768455v-12.09423748c0-1.48372124 1.21089908-2.67684548 2.64547621-2.67684548 1.46633388 0 2.61371944 1.19312424 2.61371944 2.67684548" mask="url(#a)"/><path d="m18.9328744 9.75440114v10.79574026c0 1.4499796-1.1428992 2.6426297-2.6034995 2.6426297-1.4601419 0-2.603041-1.1926501-2.603041-2.6426297v-10.79574026c0-1.4499796 1.1428991-2.64262969 2.603041-2.64262969 1.4606003 0 2.6034995 1.19265009 2.6034995 2.64262969m-5.2065405-6.60634157c0-1.48208761 1.1428991-2.67473771 2.603041-2.67473771 1.4606003 0 2.6034995 1.1926501 2.6034995 2.67473771 0 1.4499796-1.1428992 2.6426297-2.6034995 2.6426297-1.4601419 0-2.603041-1.1926501-2.603041-2.6426297"/><path d="m30.0724112 17.6268275c-1.3956822 0-2.565515-1.0333882-2.7493459-2.3547855-.0143244-.1176914-.0281714-.2358612-.0281714-.3621642 0-.1267815.013847-.2444729.0281714-.3626427.1838309-1.3213973 1.3536637-2.3547855 2.7493459-2.3547855 1.4878363 0 2.7116247 1.2261916 2.7116247 2.7169497h.0329463v.0004785h-.0329463c0 1.4907581-1.2237884 2.7169497-2.7116247 2.7169497zm8.2661819-2.7169497.0004775-.0004785h-.000955c-.0028649 0-.0315139-.0009568-.0315139-.033011v-5.49992151c0-1.52424756-1.2567346-2.74996077-2.7450485-2.74996077-.6149978 0-1.1497785.18132136-1.5909726.50903937-.1322627.09424883-.2564082.19854449-.3695717.31432224-1.3235822-.79035059-3.5285977-.82336161-3.5285977-.82336161-1.4959536 0-2.8964106.3951753-4.1068294 1.08314391-.0639827.02439945-.1284429.04784205-.1919481.07654727l-.5619972.36455639c-1.8693451 1.33766359-3.1494764 3.47668141-3.3934701 5.88887741-.0023874.0243994-.0042974.0487988-.0066848.0736767-.0105046.1133857-.0200543.2267713-.0257841.3415922-.0052523.0889862-.0066847.1789293-.0085946.2688723-.000955.051191-.0042974.1014251-.0042974.1526161v.033011.0004785.033011c0 .051191.0033424.1019035.0042974.1526161.0019099.089943.0033423.1798861.0085946.2688723.0057298.1148209.0152795.228685.0257841.3420706.0023874.0243995.0042974.0487989.0066848.0731983.2439937 2.412196 1.524125 4.5512138 3.3934701 5.8888774l.5619972.3645564c.0635052.0287052.1279654.0521478.1919481.0765473 1.2104188.6879686 2.6108758 1.0831439 4.1068294 1.0831439 0 0 2.2050155-.033011 3.5285977-.8233616.1131635.1157777.237309.2205518.3695717.3143222.4411941.327718.9759748.5090394 1.5909726.5090394 1.4883139 0 2.7450485-1.2257132 2.7450485-2.7499608v-5.4999215c0-.0320542.028649-.033011.0315139-.033011h.000955z"/><path d="m57.2719449 14.9096386v5.5330923c0 1.5242916-1.2261916 2.7500402-2.7504392 2.7500402-1.5237691 0-2.7499607-1.2257486-2.7499607-2.7500402v-5.5330923c0-1.5242916-1.2587243-2.7500402-2.7829718-2.7500402-1.5242476 0-2.7499608 1.2257486-2.7499608 2.7500402v5.5330923c0 1.5242916-1.2257132 2.7500402-2.7499608 2.7500402-1.5242475 0-2.7829717-1.2257486-2.7829717-2.7500402v-5.5330923c0-4.5723964 3.710629-8.28313258 8.2828933-8.28313258s8.2833717 3.71073618 8.2833717 8.28313258"/></g><path d="m87.8141136 14.7447159v5.5330924c0 1.4912796-1.2275003 2.7170282-2.7139374 2.7170282-1.486437 0-2.6817452-1.2257486-2.6817452-2.7170282v-5.5330924c0-1.5242916-1.2279668-2.7830521-2.7144039-2.7830521-1.4859705 0-2.7139373 1.2587605-2.7139373 2.7830521v5.5330924c0 1.4912796-1.1957747 2.7170282-2.6817453 2.7170282-1.486437 0-2.7139373-1.2257486-2.7139373-2.7170282v-5.5330924c0-1.5242916-1.163116-2.7830521-2.6495531-2.7830521-1.486437 0-2.7144039 1.2587605-2.7144039 2.7830521v5.5330924c0 1.4912796-1.1953081 2.7170282-2.6812787 2.7170282-1.486437 0-2.7144039-1.2257486-2.7144039-2.7170282v-5.5330924c0-4.6054083 3.6512419-8.31614447 8.1100865-8.31614447 2.0677618 0 3.9419042.79515776 5.3634904 2.12042069 1.4215863-1.32526293 3.3279208-2.12042069 5.3956826-2.12042069 4.4588447 0 8.1100865 3.74374817 8.1100865 8.31614447" fill="#096dd9"/><path d="m90.404475 14.9096386v-5.53309239c0-1.52429158 1.2257132-2.75004019 2.7499608-2.75004019s2.7499608 1.22574861 2.7499608 2.75004019v5.53309239c0 1.5242915 1.2587242 2.7500401 2.7829718 2.7500401s2.7504396-1.2257486 2.7504396-2.7500401v-5.53309239c0-1.52429158 1.225713-2.75004019 2.74996-2.75004019 1.523769 0 2.782972 1.22574861 2.782972 2.75004019v5.53309239c0 4.5728747-3.710629 8.2831325-8.2833716 8.2831325-4.5722643 0-8.2828934-3.7102578-8.2828934-8.2831325" fill="#096dd9"/><path d="m4.10325794.45386773c-2.15187266 0-3.89594222 1.70461097-3.89594222 3.80779874 0 2.10318776 1.74406956 3.80826219 3.89594222 3.80826219s3.89641641-1.70507443 3.89641641-3.80826219c0-2.10318777-1.74454375-3.80779874-3.89641641-3.80779874zm0 7.07195726c-1.84412358 0-3.33924356-1.46129374-3.33924356-3.26415852 0-1.80240133 1.49511998-3.26415853 3.33924356-3.26415853 1.84459776 0 3.33971775 1.4617572 3.33971775 3.26415853 0 1.80286478-1.49511999 3.26415852-3.33971775 3.26415852zm1.66108637-1.52154372-.96497595-1.26293227.00995798-.00092692c.5590696-.17657879.96355338-.68916708.96355338-1.29444765 0-.7512709-.62261102-1.36025916-1.39127245-1.36025916h-1.11292313c-.15363745 0-.27834933.12189034-.27834933.27205183v3.80779873c0 .15016149.12471188.27205183.27834933.27205183.15316326 0 .27787514-.12189034.27787514-.27205183v-1.3597957h.59937573l1.17314521 1.52478795c.09246698.1200365.26649459.14459996.3897839.05468845.12281512-.09037497.14794717-.26092876.05548019-.38096526zm-2.21778503-1.7426148v-1.63184754h.83504799c.46138653 0 .83504798.36520757.83504798.8161555 0 .45048446-.37366145.81569204-.83504798.81569204z" fill="#096dd9" mask="url(#b)" transform="translate(109.337349)"/></g></svg>

<?xml version="1.0" encoding="UTF-8"?>
<svg width="118px" height="30px" viewBox="0 0 118 30" version="1.1" xmlns="http://www.w3.org/2000/svg" xmlns:xlink="http://www.w3.org/1999/xlink">
    <title>编组备份</title>
    <defs>
        <polygon id="path-1" points="0 0.456106901 10.3588711 0.456106901 10.3588711 29.8045416 0 29.8045416"></polygon>
        <polygon id="path-3" points="0.207315718 0.453867733 7.99957951 0.453867733 7.99957951 8.06992866 0.207315718 8.06992866"></polygon>
    </defs>
    <g id="页面-1" stroke="none" stroke-width="1" fill="none" fill-rule="evenodd">
        <g id="建木官网" transform="translate(-361.000000, -29.000000)">
            <g id="编组备份" transform="translate(361.000000, 29.000000)">
                <g id="编组-19" transform="translate(0.236661, 0.000000)">
                    <g id="编组" transform="translate(0.000000, 0.000000)">
                        <mask id="mask-2" fill="white">
                            <use xlink:href="#path-1"></use>
                        </mask>
                        <g id="Clip-2"></g>
                        <path d="M5.09967545,3.13295239 C5.09967545,1.64923114 6.31057453,0.456106901 7.74515166,0.456106901 C9.21148554,0.456106901 10.3588711,1.64923114 10.3588711,3.13295239 C10.3588711,4.58407461 9.21148554,5.77766455 7.74515166,5.77766455 C6.31057453,5.77766455 5.09967545,4.58407461 5.09967545,3.13295239 M10.3588711,9.71236662 L10.3588711,21.8066041 C10.3588711,26.1930355 6.91671443,29.772874 2.58168654,29.8045416 C1.14756965,29.772874 -0.000276145745,28.6114173 -0.000276145745,27.1602951 C-0.000276145745,25.6765739 1.17932641,24.4834496 2.64520006,24.4834496 L2.51817302,24.4834496 C3.9522899,24.4834496 5.09967545,23.3224587 5.09967545,21.8066041 L5.09967545,9.71236662 C5.09967545,8.22864538 6.31057453,7.03552114 7.74515166,7.03552114 C9.21148554,7.03552114 10.3588711,8.22864538 10.3588711,9.71236662" id="Fill-1" fill="#042749" mask="url(#mask-2)"></path>
                    </g>
                    <path d="M18.9328744,9.75440114 L18.9328744,20.5501414 C18.9328744,22.000121 17.7899752,23.1927711 16.3293749,23.1927711 C14.869233,23.1927711 13.7263339,22.000121 13.7263339,20.5501414 L13.7263339,9.75440114 C13.7263339,8.30442154 14.869233,7.11177145 16.3293749,7.11177145 C17.7899752,7.11177145 18.9328744,8.30442154 18.9328744,9.75440114 M13.7263339,3.14805957 C13.7263339,1.66597196 14.869233,0.473321859 16.3293749,0.473321859 C17.7899752,0.473321859 18.9328744,1.66597196 18.9328744,3.14805957 C18.9328744,4.59803917 17.7899752,5.79068927 16.3293749,5.79068927 C14.869233,5.79068927 13.7263339,4.59803917 13.7263339,3.14805957" id="Fill-3" fill="#042749"></path>
                    <path d="M30.0724112,17.6268275 C28.676729,17.6268275 27.5068962,16.5934393 27.3230653,15.272042 C27.3087409,15.1543506 27.2948939,15.0361808 27.2948939,14.9098778 C27.2948939,14.7830963 27.3087409,14.6654049 27.3230653,14.5472351 C27.5068962,13.2258378 28.676729,12.1924496 30.0724112,12.1924496 C31.5602475,12.1924496 32.7840359,13.4186412 32.7840359,14.9093993 L32.8169822,14.9093993 L32.8169822,14.9098778 L32.7840359,14.9098778 C32.7840359,16.4006359 31.5602475,17.6268275 30.0724112,17.6268275 L30.0724112,17.6268275 Z M38.3385931,14.9098778 L38.3390706,14.9093993 L38.3381156,14.9093993 C38.3352507,14.9093993 38.3066017,14.9084425 38.3066017,14.8763883 L38.3066017,9.37646679 L38.3066017,9.37646679 C38.3066017,7.85221923 37.0498671,6.62650602 35.5615532,6.62650602 C34.9465554,6.62650602 34.4117747,6.80782738 33.9705806,7.13554539 C33.8383179,7.22979422 33.7141724,7.33408988 33.6010089,7.44986763 C32.2774267,6.65951704 30.0724112,6.62650602 30.0724112,6.62650602 C28.5764576,6.62650602 27.1760006,7.02168132 25.9655818,7.70964993 C25.9015991,7.73404938 25.8371389,7.75749198 25.7736337,7.7861972 L25.2116365,8.15075359 C23.3422914,9.48841718 22.0621601,11.627435 21.8181664,14.039631 C21.815779,14.0640304 21.813869,14.0884298 21.8114816,14.1133077 C21.800977,14.2266934 21.7914273,14.340079 21.7856975,14.4548999 C21.7804452,14.5438861 21.7790128,14.6338292 21.7771029,14.7237722 C21.7761479,14.7749632 21.7728055,14.8251973 21.7728055,14.8763883 L21.7728055,14.9093993 L21.7728055,14.9098778 L21.7728055,14.9428888 C21.7728055,14.9940798 21.7761479,15.0447923 21.7771029,15.0955049 C21.7790128,15.1854479 21.7804452,15.275391 21.7856975,15.3643772 C21.7914273,15.4791981 21.800977,15.5930622 21.8114816,15.7064478 C21.813869,15.7308473 21.815779,15.7552467 21.8181664,15.7796461 C22.0621601,18.1918421 23.3422914,20.3308599 25.2116365,21.6685235 L25.7736337,22.0330799 C25.8371389,22.0617851 25.9015991,22.0852277 25.9655818,22.1096272 C27.1760006,22.7975958 28.5764576,23.1927711 30.0724112,23.1927711 C30.0724112,23.1927711 32.2774267,23.1597601 33.6010089,22.3694095 C33.7141724,22.4851872 33.8383179,22.5899613 33.9705806,22.6837317 C34.4117747,23.0114497 34.9465554,23.1927711 35.5615532,23.1927711 C37.0498671,23.1927711 38.3066017,21.9670579 38.3066017,20.4428103 L38.3066017,20.4428103 L38.3066017,14.9428888 C38.3066017,14.9108346 38.3352507,14.9098778 38.3381156,14.9098778 L38.3390706,14.9098778 L38.3385931,14.9098778 Z" id="Fill-5" fill="#042749"></path>
                    <path d="M57.2719449,14.9096386 L57.2719449,20.4427309 C57.2719449,21.9670225 56.0457533,23.1927711 54.5215057,23.1927711 C52.9977366,23.1927711 51.771545,21.9670225 51.771545,20.4427309 L51.771545,14.9096386 C51.771545,13.385347 50.5128207,12.1595984 48.9885732,12.1595984 C47.4643256,12.1595984 46.2386124,13.385347 46.2386124,14.9096386 L46.2386124,20.4427309 C46.2386124,21.9670225 45.0128992,23.1927711 43.4886516,23.1927711 C41.9644041,23.1927711 40.7056799,21.9670225 40.7056799,20.4427309 L40.7056799,14.9096386 C40.7056799,10.3372422 44.4163089,6.62650602 48.9885732,6.62650602 C53.5608375,6.62650602 57.2719449,10.3372422 57.2719449,14.9096386" id="Fill-7" fill="#042749"></path>
                    <path d="M87.8141136,14.7447159 L87.8141136,20.2778083 C87.8141136,21.7690879 86.5866133,22.9948365 85.1001762,22.9948365 C83.6137392,22.9948365 82.418431,21.7690879 82.418431,20.2778083 L82.418431,14.7447159 C82.418431,13.2204243 81.1904642,11.9616638 79.7040271,11.9616638 C78.2180566,11.9616638 76.9900898,13.2204243 76.9900898,14.7447159 L76.9900898,20.2778083 C76.9900898,21.7690879 75.7943151,22.9948365 74.3083445,22.9948365 C72.8219075,22.9948365 71.5944072,21.7690879 71.5944072,20.2778083 L71.5944072,14.7447159 C71.5944072,13.2204243 70.4312912,11.9616638 68.9448541,11.9616638 C67.4584171,11.9616638 66.2304502,13.2204243 66.2304502,14.7447159 L66.2304502,20.2778083 C66.2304502,21.7690879 65.0351421,22.9948365 63.5491715,22.9948365 C62.0627345,22.9948365 60.8347676,21.7690879 60.8347676,20.2778083 L60.8347676,14.7447159 C60.8347676,10.1393076 64.4860095,6.42857143 68.9448541,6.42857143 C71.0126159,6.42857143 72.8867583,7.22372919 74.3083445,8.54899212 C75.7299308,7.22372919 77.6362653,6.42857143 79.7040271,6.42857143 C84.1628718,6.42857143 87.8141136,10.1723196 87.8141136,14.7447159" id="Fill-9" fill="#096DD9"></path>
                    <path d="M90.404475,14.9096386 L90.404475,9.37654621 C90.404475,7.85225463 91.6301882,6.62650602 93.1544358,6.62650602 C94.6786834,6.62650602 95.9043966,7.85225463 95.9043966,9.37654621 L95.9043966,14.9096386 C95.9043966,16.4339301 97.1631208,17.6596787 98.6873684,17.6596787 C100.211616,17.6596787 101.437808,16.4339301 101.437808,14.9096386 L101.437808,9.37654621 C101.437808,7.85225463 102.663521,6.62650602 104.187768,6.62650602 C105.711537,6.62650602 106.97074,7.85225463 106.97074,9.37654621 L106.97074,14.9096386 C106.97074,19.4825133 103.260111,23.1927711 98.6873684,23.1927711 C94.1151041,23.1927711 90.404475,19.4825133 90.404475,14.9096386" id="Fill-11" fill="#096DD9"></path>
                    <g id="编组" transform="translate(109.337349, 0.000000)">
                        <mask id="mask-4" fill="white">
                            <use xlink:href="#path-3"></use>
                        </mask>
                        <g id="Clip-14"></g>
                        <path d="M4.10325794,0.453867733 C1.95138528,0.453867733 0.207315718,2.1584787 0.207315718,4.26166647 C0.207315718,6.36485423 1.95138528,8.06992866 4.10325794,8.06992866 C6.2551306,8.06992866 7.99967435,6.36485423 7.99967435,4.26166647 C7.99967435,2.1584787 6.2551306,0.453867733 4.10325794,0.453867733 L4.10325794,0.453867733 Z M4.10325794,7.52582499 C2.25913436,7.52582499 0.764014375,6.06453125 0.764014375,4.26166647 C0.764014375,2.45926514 2.25913436,0.997507937 4.10325794,0.997507937 C5.9478557,0.997507937 7.44297569,2.45926514 7.44297569,4.26166647 C7.44297569,6.06453125 5.9478557,7.52582499 4.10325794,7.52582499 L4.10325794,7.52582499 Z M5.76434431,6.00428127 L4.79936836,4.741349 L4.80932634,4.74042208 C5.36839594,4.56384329 5.77287972,4.051255 5.77287972,3.44597443 C5.77287972,2.69470353 5.1502687,2.08571527 4.38160727,2.08571527 L3.26868414,2.08571527 C3.11504669,2.08571527 2.99033481,2.20760561 2.99033481,2.3577671 L2.99033481,6.16556583 C2.99033481,6.31572732 3.11504669,6.43761766 3.26868414,6.43761766 C3.4218474,6.43761766 3.54655928,6.31572732 3.54655928,6.16556583 L3.54655928,4.80577013 L4.14593501,4.80577013 L5.31908022,6.33055808 C5.4115472,6.45059458 5.58557481,6.47515804 5.70886412,6.38524653 C5.83167924,6.29487156 5.85681129,6.12431777 5.76434431,6.00428127 L5.76434431,6.00428127 Z M3.54655928,4.26166647 L3.54655928,2.62981893 L4.38160727,2.62981893 C4.8429938,2.62981893 5.21665525,2.9950265 5.21665525,3.44597443 C5.21665525,3.89645889 4.8429938,4.26166647 4.38160727,4.26166647 L3.54655928,4.26166647 Z" id="Fill-13" fill="#096DD9" mask="url(#mask-4)"></path>
                    </g>
                </g>
            </g>
        </g>
    </g>
</svg>
